media/theme/theme-4/rundown_fitur.svg

<svg fill="none" height="63" viewBox="0 0 119 63" width="119" xmlns="http://www.w3.org/2000/svg"><path clip-rule="evenodd" d="m118.568 49.743c-3.657-.0596-7.846-.3058-10.497.8478-2.32 1.0097-3.641 3.0324-5.482 4.4811-2.503 1.9685-4.9527 4.4007-7.9317 5.8135-1.6066.7619-3.4004 1.1968-5.2486 1.6955-1.9227.5189-4.797.0651-6.2984-.3633l-1.6329-.2422c-4.1532-1.5785-7.2074-3.9874-10.1474-6.7824-1.0929-1.039-3.5497-3.1895-3.9656-4.7234h.1166c1.0892.8932 2.5453 1.149 3.849 1.8167 3.6749 1.8821 6.4957 1.6014 10.264-.1211 5.4217-2.4782 8.4129-6.4208 10.264-12.5957 1.388-4.6304.3321-10.9193-1.1663-14.4125-.4715-1.0991-.8374-1.355-1.3997-2.3011-.2682-.4505-.6035-.7228-.933-1.09-.3709-.4134-.3446-.4885-.8165-.8478-.2148-.1636-.7331-.5587-.9331-.7267-.4607-.2202-.8727-.4781-1.3996-.7267-.1555-.1614-.8943-.323-1.0498-.4844-.3448-.1028-.6954-.1837-1.0497-.2422-.151-.0261-1.0651-.0991-1.1664-.1212-.6588-.143-2.1201.2113-2.6826.3634-3.9126 1.058-4.4205 1.8113-6.2984 4.9656-.7762 1.3043-1.9806 3.912-1.3996 6.419 1.0302 4.4468 2.8034 6.8477 6.5316 8.4779 1.0712.4683 3.2091 1.1848 5.0154.7267.9715-.2464 1.7989-.7002 2.7993-.8478v.2422c-.617.4387-1.0964 1.1545-1.7496 1.5745-1.6353 1.0523-4.05 1.6229-6.415 1.8167l-.1166-.1211c.0213-1.1178-.4347-1.4884-1.5163-1.4534-.1191.0969-.0319.043-.2333.1211l-.4665.4845c-.4199.9065.3545 1.0015-1.0497.9689l-2.7993-.8478c-2.4771-1.482-4.6421-3.623-5.8318-6.419-.5728-1.3458-.9161-2.9239-1.283-4.4812-.1767-.7498.0963-1.5186-.2333-2.0589-.1866 1.2787-1.0715 2.3336-1.6329 3.2701-1.9595 3.2692-5.1575 6.6472-10.1474 6.6612-.3469-1.2327-.2916-1.9682-1.8662-1.9378-.5832.5571-.9498.5685-.9331 1.8166-4.4182.0951-7.5748-1.7561-9.7974-3.9967v-.2422h.3499c.4845.4239 1.0237.3842 1.7495.6056 3.0153.9196 6.3414.1367 8.5145-1.0901 2.933-1.6558 5.0342-4.0348 6.0651-7.6301 2.1314-7.434-2.9426-13.2042-7.5814-15.018-1.2796-.5003-3.7537-1.2191-5.8318-.7267-5.6658 1.3427-8.4108 5.515-10.264 10.7791-.3643 1.0347-.2082 2.0318-.4666 3.1489-1.5872 6.8623 1.0304 14.7974 3.6158 18.6514 2.6093 3.8898 6.0164 6.2245 10.7305 7.9935 1.2563.4715 4.2593 1.5598 6.1818 1.09 1.9957-.4877 3.8191-1.2512 5.5985-2.0589 1.1064-.5023 2.1192-1.5475 3.4991-1.6956v.1211c-1.5163 1.4776-2.6158 3.433-4.0823 4.9656-2.2906 2.394-5.0919 4.4968-7.9313 6.2979-1.6903 1.0722-3.9469 1.9319-5.9484 2.5434-1.6563.506-5.0068.9551-6.9982.4844h-1.283c-1.5681-.4443-3.3344-.6941-4.7821-1.3322-4.5213-1.9929-7.7853-5.1333-11.4304-7.9935-2.0233-1.5876-3.3884-3.6917-5.9485-4.8445-3.3051-1.4882-8.29853-1.2111-12.946615-1.2111v-.2422c1.143035-1.1059 2.164425-2.3586 3.382455-3.3912 3.2958-2.7939 10.74106-5.4567 16.91226-3.6334 1.8346.5421 3.675 1.1652 5.3653 1.9378 1.156.5283 2.2422 1.5604 3.4991 1.9378v-.1211c-4.9022-4.8089-8.6023-16.4462-5.5985-26.0393 2.2161-7.0757 6.3851-12.66741 12.7133-15.50242 3.4623-1.551091 9.2919-2.590482 13.7632-1.09001 6.5106 2.18487 11.032 6.60949 13.5298 12.95903.6043 1.5364.7948 3.3482 1.1664 5.0868.193.9029-.1605 1.8993.2332 2.5434.2474-1.9343 1.7475-3.4205 2.6827-4.7234 2.3888-3.3281 5.4501-4.9229 9.9141-6.1768 1.4533-.4082 4.3015-.6989 6.0651-.2422 1.4395.3728 2.8989.747 4.1989 1.3322 4.4905 2.0216 7.8979 6.3036 9.7975 11.0213.4115 1.0219.4729 1.9006.8164 3.0278.7749 2.5434 1.1685 7.4299.3499 10.4157-.7958 2.902-1.7552 5.5795-3.1492 7.8724-.6016.9896-1.506 1.772-2.0994 2.7856h.1166c.5994-.7732 1.9839-1.1533 2.9159-1.5745 1.3236-.5982 2.9507-1.3307 4.4327-1.8167l2.332-.2422c4.577-1.0254 8.558 1.2424 11.081 2.9067.963.6356 3.364 2.2092 3.499 3.5123zm-98.3248-6.0557c.3713 1.4499 1.5725 2.5446 2.3328 3.6334 3.2598 4.6685 7.2152 7.653 13.4132 9.3257 2.853.77 9.3584.0969 10.9638-1.2111-7.5982.2043-10.9888-3.5224-15.2794-6.6612-2.0107-1.4711-4.2423-2.4566-6.6483-3.5123-1.3966-.6128-2.9802-1.4233-4.7821-1.5745zm81.2958 3.149c-.739.5079-1.8329.4822-2.6828.8477-1.5922.6848-3.3618 1.4622-4.7821 2.4223-4.0015 2.7051-7.5043 6.9882-14.2296 6.419v.1211h.2333c1.2148 1.152 6.9425 1.5538 9.2142.9689 4.7903-1.2332 8.1921-3.8194 10.731-7.3879.725-1.0195 1.856-2.0312 2.216-3.3911z" fill="#000" fill-rule="evenodd"/></svg>

<svg width="119" height="63" viewBox="0 0 119 63" fill="none" xmlns="http://www.w3.org/2000/svg">
<path fill-rule="evenodd" clip-rule="evenodd" d="M118.568 49.743C114.911 49.6834 110.722 49.4372 108.071 50.5908C105.751 51.6005 104.43 53.6232 102.589 55.0719C100.086 57.0404 97.6363 59.4726 94.6573 60.8854C93.0507 61.6473 91.2569 62.0822 89.4087 62.5809C87.486 63.0998 84.6117 62.646 83.1103 62.2176L81.4774 61.9754C77.3242 60.3969 74.27 57.988 71.33 55.193C70.2371 54.154 67.7803 52.0035 67.3644 50.4696H67.481C68.5702 51.3628 70.0263 51.6186 71.33 52.2863C75.0049 54.1684 77.8257 53.8877 81.594 52.1652C87.0157 49.687 90.0069 45.7444 91.858 39.5695C93.246 34.9391 92.1901 28.6502 90.6917 25.157C90.2202 24.0579 89.8543 23.802 89.292 22.8559C89.0238 22.4054 88.6885 22.1331 88.359 21.7659C87.9881 21.3525 88.0144 21.2774 87.5425 20.9181C87.3277 20.7545 86.8094 20.3594 86.6094 20.1914C86.1487 19.9712 85.7367 19.7133 85.2098 19.4647C85.0543 19.3033 84.3155 19.1417 84.16 18.9803C83.8152 18.8775 83.4646 18.7966 83.1103 18.7381C82.9593 18.712 82.0452 18.639 81.9439 18.6169C81.2851 18.4739 79.8238 18.8282 79.2613 18.9803C75.3487 20.0383 74.8408 20.7916 72.9629 23.9459C72.1867 25.2502 70.9823 27.8579 71.5633 30.3649C72.5935 34.8117 74.3667 37.2126 78.0949 38.8428C79.1661 39.3111 81.304 40.0276 83.1103 39.5695C84.0818 39.3231 84.9092 38.8693 85.9096 38.7217V38.9639C85.2926 39.4026 84.8132 40.1184 84.16 40.5384C82.5247 41.5907 80.11 42.1613 77.745 42.3551L77.6284 42.234C77.6497 41.1162 77.1937 40.7456 76.1121 40.7806C75.993 40.8775 76.0802 40.8236 75.8788 40.9017L75.4123 41.3862C74.9924 42.2927 75.7668 42.3877 74.3626 42.3551L71.5633 41.5073C69.0862 40.0253 66.9212 37.8843 65.7315 35.0883C65.1587 33.7425 64.8154 32.1644 64.4485 30.6071C64.2718 29.8573 64.5448 29.0885 64.2152 28.5482C64.0286 29.8269 63.1437 30.8818 62.5823 31.8183C60.6228 35.0875 57.4248 38.4655 52.4349 38.4795C52.088 37.2468 52.1433 36.5113 50.5687 36.5417C49.9855 37.0988 49.6189 37.1102 49.6356 38.3583C45.2174 38.4534 42.0608 36.6022 39.8382 34.3616V34.1194H40.1881C40.6726 34.5433 41.2118 34.5036 41.9376 34.725C44.9529 35.6446 48.279 34.8617 50.4521 33.6349C53.3851 31.9791 55.4863 29.6001 56.5172 26.0048C58.6486 18.5708 53.5746 12.8006 48.9358 10.9868C47.6562 10.4865 45.1821 9.7677 43.104 10.2601C37.4382 11.6028 34.6932 15.7751 32.84 21.0392C32.4757 22.0739 32.6318 23.071 32.3734 24.1881C30.7862 31.0504 33.4038 38.9855 35.9892 42.8395C38.5985 46.7293 42.0056 49.064 46.7197 50.833C47.976 51.3045 50.979 52.3928 52.9015 51.923C54.8972 51.4353 56.7206 50.6718 58.5 49.8641C59.6064 49.3618 60.6192 48.3166 61.9991 48.1685V48.2896C60.4828 49.7672 59.3833 51.7226 57.9168 53.2552C55.6262 55.6492 52.8249 57.752 49.9855 59.5531C48.2952 60.6253 46.0386 61.485 44.0371 62.0965C42.3808 62.6025 39.0303 63.0516 37.0389 62.5809H35.7559C34.1878 62.1366 32.4215 61.8868 30.9738 61.2487C26.4525 59.2558 23.1885 56.1154 19.5434 53.2552C17.5201 51.6676 16.155 49.5635 13.5949 48.4107C10.2898 46.9225 5.29637 47.1996 0.648285 47.1996V46.9574C1.79132 45.8515 2.81271 44.5988 4.03074 43.5662C7.32654 40.7723 14.7718 38.1095 20.943 39.9328C22.7776 40.4749 24.618 41.098 26.3083 41.8706C27.4643 42.3989 28.5505 43.431 29.8074 43.8084V43.6873C24.9052 38.8784 21.2051 27.2411 24.2089 17.648C26.425 10.5723 30.594 4.98059 36.9222 2.14558C40.3845 0.594489 46.2141 -0.444902 50.6854 1.05557C57.196 3.24044 61.7174 7.66506 64.2152 14.0146C64.8195 15.551 65.01 17.3628 65.3816 19.1014C65.5746 20.0043 65.2211 21.0007 65.6148 21.6448C65.8622 19.7105 67.3623 18.2243 68.2975 16.9214C70.6863 13.5933 73.7476 11.9985 78.2116 10.7446C79.6649 10.3364 82.5131 10.0457 84.2767 10.5024C85.7162 10.8752 87.1756 11.2494 88.4756 11.8346C92.9661 13.8562 96.3735 18.1382 98.2731 22.8559C98.6846 23.8778 98.746 24.7565 99.0895 25.8837C99.8644 28.4271 100.258 33.3136 99.4394 36.2994C98.6436 39.2014 97.6842 41.8789 96.2902 44.1718C95.6886 45.1614 94.7842 45.9438 94.1908 46.9574H94.3074C94.9068 46.1842 96.2913 45.8041 97.2233 45.3829C98.5469 44.7847 100.174 44.0522 101.656 43.5662L103.988 43.324C108.565 42.2986 112.546 44.5664 115.069 46.2307C116.032 46.8663 118.433 48.4399 118.568 49.743ZM20.2432 43.6873C20.6145 45.1372 21.8157 46.2319 22.576 47.3207C25.8358 51.9892 29.7912 54.9737 35.9892 56.6464C38.8422 57.4164 45.3476 56.7433 46.953 55.4353C39.3548 55.6396 35.9642 51.9129 31.6736 48.7741C29.6629 47.303 27.4313 46.3175 25.0253 45.2618C23.6287 44.649 22.0451 43.8385 20.2432 43.6873ZM101.539 46.8363C100.8 47.3442 99.7061 47.3185 98.8562 47.684C97.264 48.3688 95.4944 49.1462 94.0741 50.1063C90.0726 52.8114 86.5698 57.0945 79.8445 56.5253V56.6464H80.0778C81.2926 57.7984 87.0203 58.2002 89.292 57.6153C94.0823 56.3821 97.4841 53.7959 100.023 50.2274C100.748 49.2079 101.879 48.1962 102.239 46.8363H101.539Z" fill="black"/>
</svg>
